X:36
T:Mulqueeny's
R:hornpipe
D:Molloy, Peoples, Brady
Z:id:hn-hornpipe-36
M:C|
K:G
(3GBd g2 fedf|eA^ce d2gf|e2ce dGBd|cBAG FAD2|
(3GBd g2 fedf|eA^ce d2gf|e2ce dGBd|cAFA G4:|
|:(3GBd g2 (3GBd g2|(3GBd gB eBd2|(3FAd f2 (3FAd f2|(3FAd fe (3ded (3cBA|
(3GBd g2 (3GBd g2|(3GBd gB eBdg|f2ed eA^ce|1 dgfe (3ded (3cBA:|2 dgfe defg||
|:~a2ba afab|afab a2fe|defg adfa|bfge defg|
~a2ba afab|afab a2fe|de (3fed (3Bcd AF|1 G2Bd defg:|2 G2Bd (3gfe dB||

